X:84
T:Steyrer Tanz in G, nr. 46
C:traditionell
R:Steirer
A:Hallstatt, Salzkammergut
B:Corpus Musicae Popularis Austriacae (COMPA), 5.Band: J.M.Schmalnauer " Tanz Musik", Verlag Boehlau, Wien 1996
S:manuscript des Johann Michael Schmalnauer um 1820
N:im der quelle in G
Z:abc transcription Simon Wascher
F:http://simonwascher.info/TradArchiv/
M:3/4
L:1/8
K:G
V:1
%violino 1mo
P:h:Ap:
B,DGB d2 | cAcD F2 | cAcD F2 | BABD G2 |\
B,DGB d2 | cAcD F2 | cAcDFd | "in D" G4 :|
V:2
%violino 2do
G,B,DG TB2 | AFAF D2 | AFAF D2 | dcdD B2 |\
G,B,DG TB2 | AFAF D2 | AFAFDA | B4 :|
